X:7
T:dr Sunnerainler (Natur-Juiz)  Bb  ABAC
T:Alois Gabriel (28.10.1950)
T:Dirigenten-Notiz  Edi Gasser
C:Unterwalden (CH)
%%partsbox
P:ABAC
R:Naturjodel
M:3/4
L:1/4
K:Bb 
[P:A] F/f/ | d>c B/d/ | c/F/fF/e/ | A>G F/A/ | Bdf | d>c B/d/ | 
c/F/fF/e/ | AGA | B>z F/f/ | d>C B/d/ | c/F/f F/e/ | A>G F/A/ | 
Bdf | d>c B/d/ | c/F/fF/e/ | AGA | B>z || 
L:1/4
M:3/4
[P:B]  B/A/ | GEA/f/ | d2D | G/A/B c/F/ | dBB/A/ | GEA/f/ | 
d2d | c/e/ A/c/ F/A/ | BzB/A/ | GE A/f/ | d2D | 
G/A/Bc/F/ | dBB/A/ | GE A/f/ | d2d | c/e/ A/c/ F/A/ | B>z || 
L:1/4
M:3/4
[P:C] F| f/d/fd | c/d/eF | c/_c/ =c/f/ d/c/ | B/c/dF | f/d/fd | 
c/d/eA/G/ | F/=E/ F/e/ d/c/ | B2F | f/d/fd | [M:3/4] c/d/eF | 
c/_c/ =c/f/ d/c/ | B/c/dF | f/d/fd | c/d/eA/G/ | 
W:
%W:Reihenfolge: A - B - A - C
W:
W:notiert Edi Gasser. Angaben Alois Gabriel
W:UJV-Naturjodelsammlung: Code-Nr: 38-04
W:http://www.naturjodler.ch/code 38.htm  (with AUDIO)
%Juni 7, 2018

